src/icons/harness.svg

<svg viewBox="0 0 25 25" xmlns="http://www.w3.org/2000/svg"><path d="m22.9736 8.18585-6.2654-6.30553c-.1103-.11108-1.0951-1.07656-2.5893-1.572117-2.1394-.717703-4.26188-.153793-5.98529 1.572117l-6.26542 6.30553c-.11036.11107-1.069701 1.10219-1.562105 2.60595-.713136 2.1531-.152815 4.2891 1.562105 6.0236l6.26542 6.3055c.11037.1111 1.09517 1.0766 2.58939 1.5807.6112.205 1.214.3076 1.8083.3076 1.5027 0 2.9459-.6408 4.1769-1.8797l6.2654-6.3056c.1104-.111 1.0698-1.1022 1.5622-2.6059.7131-2.1617.1528-4.2977-1.5622-6.03215zm-10.0688-4.4771c.7047.2136 1.231.70061 1.2735.73479l1.8508 1.86261-3.6082 3.63124-3.60811-3.63124 1.85921-1.87115c.5009-.49556 1.1971-1.03384 2.2328-.72625zm-9.21981 8.30485c.21225-.7092.69616-1.2389.73012-1.2816l1.85076-1.86262 3.60813 3.63122-3.60813 3.6313-1.85925-1.8712c-.4924-.5041-1.02726-1.2133-.72163-2.2471zm8.25201 9.2789c-.7046-.2136-1.231-.7006-1.2735-.7348l-1.85071-1.8626 3.60811-3.6313 3.6082 3.6313-1.8593 1.8711c-.5009.4956-1.2055 1.0339-2.2328.7263zm9.2198-8.3049c-.2122.7092-.6961 1.2389-.7301 1.2816l-1.8507 1.8627-3.6082-3.6313 3.6082-3.63122 1.8592 1.87112c.4924.5041 1.0273 1.2047.7216 2.2471z" fill="#4facdf"/></svg>

<svg viewBox="0 0 25 25" xmlns="http://www.w3.org/2000/svg"><path d="M22.9736 8.18585L16.7082 1.88032C16.5979 1.76924 15.6131 0.80376 14.1189 0.308203C11.9795 -0.4095 9.85702 0.15441 8.13361 1.88032L1.86819 8.18585C1.75783 8.29692 0.798489 9.28804 0.306085 10.7918C-0.407051 12.9449 0.15327 15.0809 1.86819 16.8154L8.13361 23.1209C8.24398 23.232 9.22878 24.1975 10.723 24.7016C11.3342 24.9066 11.937 25.0092 12.5313 25.0092C14.034 25.0092 15.4772 24.3684 16.7082 23.1295L22.9736 16.8239C23.084 16.7129 24.0434 15.7217 24.5358 14.218C25.2489 12.0563 24.6886 9.9203 22.9736 8.18585ZM12.9048 3.70875C13.6095 3.92235 14.1358 4.40936 14.1783 4.44354L16.0291 6.30615L12.4209 9.93739L8.81279 6.30615L10.672 4.435C11.1729 3.93944 11.8691 3.40116 12.9048 3.70875ZM3.68499 12.0136C3.89724 11.3044 4.38115 10.7747 4.41511 10.732L6.26587 8.86938L9.874 12.5006L6.26587 16.1319L4.40662 14.2607C3.91422 13.7566 3.37936 13.0474 3.68499 12.0136ZM11.937 21.2925C11.2324 21.0789 10.706 20.5919 10.6635 20.5577L8.81279 18.6951L12.4209 15.0638L16.0291 18.6951L14.1698 20.5662C13.6689 21.0618 12.9643 21.6001 11.937 21.2925ZM21.1568 12.9876C20.9446 13.6968 20.4607 14.2265 20.4267 14.2692L18.576 16.1319L14.9678 12.5006L18.576 8.86938L20.4352 10.7405C20.9276 11.2446 21.4625 11.9452 21.1568 12.9876Z" fill="#4FACDF"/></svg>
